!!!OTL: Phidile. Nach der Trauung.
!!!OTL-incipit: ACH GOTTES SEGEN UEBER DIR
!!!COM: J. Ab. P. Schulz
!!!ARE: Europa, Mitteleuropa, Deutschland
!!!SCT: F0952
!!!TXL: @@DE
!!!YEM: Copyright 1995, estate of Helmut Schaffrath.
**kern	**text
*ICvox	*
*clefG2	*
*clefG2	*
*M6/8	*
*k[]	*
*C:	*
!LO:TX:a:t=Allegretto.	!
{8ee	1._Ach,
=1	=1
4cc	Got-
8b	-tes
4a	Se-
8g	-gen
=2	=2
4cc/	ü-
8dd/	-ber
4ee/}	dir!
{8cc/	weil
=3	=3
4dd/	du
8cc/	ihn
4dd/	mir
8cc/	ge-
=4	=4
4.ff	-ge-
4ee}	-ben,
{8ee	du
=5	=5
4dd/	ſchwarʒer
8cc/	.
4b/	Mann!
8cc/	mein
=6	=6
4dd/	Herʒ
8cc/	ſchlug
4b/}	mir,
{8cc/	nie
=7	=7
4b/	ſo
8cc/	in
4b/	meinem
8cc/	.
=8	=8
4.dd/	Le-
8cc/	-ben.
8r}	.
==	==
!!!AGN: Liebes - Lied
!!!ONB: ESAC (Essen Associative Code) Database: FINK
!!!AMT: compound duple
!!!AIN: vox
!!!EED: Helmut Schaffrath
!!!EEV: 1.0
!!@@COMMENT:"Das Original: Es-dur."
!!@@END:
!!Text: M. Claudius
!!!GTL: Minnelieder
!!!source: Musikalischer Hausschatz der Deutschen. Eine Sammlung von über 1000 Liedern und Gesängen mit Singstimmen und Klavierbegleitung. Leipzig, Litterarisches Verlags-Haus.
!!!page: 709
!!!URL-scan: https://www.digitale-sammlungen.de/en/view/bsb11144622?page=619
!!!ENC: Anna Maria Matuszewska
!!!EEV: 2024/08/08
*-	*-
